images/mirrored_fit_bubble_woman_1_optim.svg

<?xml version="1.0" encoding="UTF-8"?>
<svg viewBox="0 0 299 318" version="1.1" xmlns="http://www.w3.org/2000/svg" xmlns:xlink="http://www.w3.org/1999/xlink">
    <title>fit_bubble_woman_1_optim</title>
    <g id="Page-1" stroke="none" stroke-width="1" fill="none" fill-rule="evenodd">
        <g id="fit_bubble_woman_1_optim" transform="translate(149.182902, 158.643904) scale(-1, 1) translate(-149.182902, -158.643904) " fill-rule="nonzero">
            <circle id="Oval" fill="#F0ECF0" cx="131.2" cy="186.087809" r="131.2"></circle>
            <path d="M144.8,100.787809 C155.3,109.787809 179.4,105.087809 180.2,141.487809 C178.4,127.187809 163.6,125.487809 144.3,101.887809 L144.8,100.887809 L144.8,100.787809 Z M61,101.587809 C64.6,100.387809 61.5,98.2878089 66,105.087809 C70,142.187809 74.6,152.987809 58.2,160.887809 C56.6,161.487809 53.6,161.887809 48.1,164.187809 C30.1,138.487809 49.1,118.587809 51.1,97.0878089 C55.2,100.487809 59.3,102.087809 61.1,101.587809 L61,101.587809 Z" id="Shape" fill="#42210B"></path>
            <path d="M166.5,157.587809 C111.9,141.587809 116.3,164.987809 112.2,134.287809 C119.3,135.587809 132.2,136.087809 134,123.887809 C135.8,111.687809 141.2,107.887809 144.3,101.887809 C156.7,116.887809 171.6,123.087809 175,157.887809 C170.8,157.987809 167.7,157.887809 166.5,157.587809 L166.5,157.587809 Z M44.5,61.3878089 C44.0333333,63.1211422 43.6333333,64.8878089 43.3,66.6878089 C25.2,42.6878089 49,14.4878089 53.3,12.6878089 C55.9,11.5878089 42.9,19.8878089 41.5,39.6878089 C40.7768045,47.0564691 41.8047234,54.4917486 44.5,61.3878089 L44.5,61.3878089 Z" id="Shape" fill="#42210B"></path>
            <path d="M254.9,135.887809 L255.1,139.387809 L254.9,135.887809 Z M254.1,126.987809 L254.9,135.887809 L254.1,126.987809 Z M243,88.5878089 L239.6,82.7878089 L242.9,88.5878089 L243,88.5878089 Z M243.4,89.3878089 L243.9,90.1878089 L243.4,89.3878089 Z M245.8,93.8878089 L246.1,94.3878089 L245.8,93.8878089 Z M244.8,91.9878089 L245.1,92.4878089 L244.8,91.9878089 Z" id="Shape" fill="#F4A269"></path>
            <path d="M243.7,83.1878089 C278.7,140.987809 250.3,152.087809 266.9,169.087809 C262.7,164.787809 259.5,163.887809 256.9,155.587809 C254.5,155.587809 258.2,115.387809 243.4,89.3878089 C238.1,80.0878089 238.6,83.3878089 243.7,83.1878089 Z M232.1,73.7878089 C233.524389,75.7365556 235.13169,77.5447695 236.9,79.1878089 C235.040894,77.6359786 233.423164,75.8160319 232.1,73.7878089 L232.1,73.7878089 Z" id="Shape" fill="#CE6D42"></path>
            <path d="M220.3,61.9878089 C222.2,63.2878089 223.2,63.4878089 222.4,65.5878089 C220.4,64.5878089 219.3,63.3878089 220.1,61.2878089 C222.3,62.6878089 220.8,61.9878089 220.4,61.8878089 L220.3,61.9878089 Z M218.3,78.3878089 L217.8,78.1878089 L218.3,78.3878089 Z" id="Shape" fill="#F4A269"></path>
            <path d="M220.3,61.9878089 C221,61.9878089 221.4,62.1878089 222.3,63.2878089 L220.3,61.9878089 Z M214,71.5878089 C214.489118,71.7360958 214.991473,71.8365667 215.5,71.8878089 C214.985356,71.8852369 214.476045,71.7833746 214,71.5878089 L214,71.5878089 Z" id="Shape" fill="#CE6D42"></path>
            <path d="M193.5,76.9878089 C192.9,76.8878089 190.7,76.1878089 190.5,75.5878089 C191.43046,76.2162362 192.438982,76.7204975 193.5,77.0878089 L193.5,76.9878089 Z M216.3,77.3878089 L214,76.3878089 L216.3,77.3878089 Z" id="Shape" fill="#D38053"></path>
            <path d="M217.8,78.1878089 L218.5,78.6878089 C215.5,80.8878089 217.2,78.8878089 205,77.8878089 C216.9,78.0878089 205,74.2878089 217.8,78.1878089 Z" id="Path" fill="#F4A269"></path>
            <path d="M215.1,79.7878089 C216.2,79.5878089 217.7,78.2878089 218.5,77.6878089 C218.1,77.2878089 218,77.4878089 218.3,77.3878089 C220.7,78.0878089 229.5,71.5878089 229.8,69.1878089 C229.817869,70.0575398 229.884641,70.9255773 230,71.7878089 C230.2,66.7878089 236.2,86.4878089 251,80.7878089 C243.8,85.7878089 235.9,81.2878089 237,81.7878089 C226.7,87.0878089 224.8,90.2878089 214.6,84.7878089 C219.2,83.7878089 218.9,81.6878089 215.1,79.7878089 Z" id="Path" fill="#CE6D42"></path>
            <path d="M193,210.787809 L194.6,210.387809 L193,210.787809 Z M186.2,212.287809 L187.7,211.987809 L186.2,212.287809 Z M213.6,197.487809 C210.6,197.887809 186.2,200.787809 184.6,199.187809 C184.1,198.787809 194.8,181.187809 194.6,175.087809 C193,181.087809 182,193.087809 179.7,198.887809 C173.2,194.787809 161,187.687809 157,171.887809 C154.4,178.587809 159.5,165.287809 129.9,156.787809 C124.4,153.387809 120.1,152.287809 117.5,151.187809 C134.09357,150.130885 150.734555,152.304401 166.5,157.587809 C170.2,158.787809 197.5,156.087809 211.7,157.987809 C206.4,166.287809 209.7,192.787809 216.2,202.887809 C217.4,204.687809 218,204.187809 215,204.887809 C216.7,204.587809 214.7,205.287809 213.6,197.487809 L213.6,197.487809 Z" id="Shape" fill="#A52A6A"></path>
            <path d="M157,174.987809 C156.2,173.587809 156,174.187809 157,171.887809 C161,187.787809 173.2,194.787809 179.7,198.887809 C182,192.987809 193,181.087809 194.7,175.087809 C194.7,181.087809 184.1,198.787809 184.6,199.287809 C186.1,200.787809 210.6,197.887809 213.6,197.487809 C216.2,206.287809 229.1,203.287809 183.5,212.887809 C172.863673,201.653163 163.935061,188.917257 157,175.087809 L157,174.987809 Z" id="Path" fill="#7C2050"></path>
            <path d="M200.3,78.4878089 C196.6,80.4878089 199.3,87.3878089 203,86.8878089 C209.9,85.8878089 225.6,84.8878089 215.6,79.8878089 C216.788959,79.9351293 217.905991,79.3188353 218.5,78.2878089 C220,78.4878089 230.1,74.1878089 229.4,70.1878089 C232.8,74.2878089 235,77.1878089 237.8,79.1878089 C241.229554,81.6806995 245.588511,82.5231869 249.7,81.4878089 C247.788606,82.3302359 245.769215,82.9023968 243.7,83.1878089 C278.7,140.987809 250.4,152.087809 266.9,169.087809 C262.9,164.887809 259.5,163.887809 256.9,155.587809 C223.3,158.287809 200.7,156.587809 211.8,158.087809 C206.5,166.387809 209.8,192.787809 216.3,202.887809 C249.9,198.687809 283.3,183.487809 294.8,173.987809 C297.8,171.387809 299.5,165.987809 297.5,163.287809 C296.4,161.687809 294.5,156.087809 294,154.987809 C284.6,135.787809 300.3,151.387809 257.8,76.9878089 C248.1,60.0878089 256,65.0878089 228.8,56.5878089 C229.1,56.3878089 216.3,51.3878089 212.7,55.1878089 L212.8,55.1878089 C203.4,53.8878089 203.3,55.9878089 201.9,58.8878089 C197.5,57.4878089 193.7,59.8878089 194.9,62.5878089 C195.2,62.1878089 192.9,64.8878089 189.7,73.5878089 C188.7,76.3878089 197.3,78.5878089 200.3,78.5878089 L200.3,78.4878089 Z M197.6,60.4878089 C196.8,60.4878089 195.9,61.2878089 195,62.4878089 C196.2,60.8878089 197,60.2878089 197.6,60.4878089 Z" id="Shape" fill="#F4A269"></path>
            <path d="M200.3,73.6878089 C199.890959,72.9046698 199.890959,71.970948 200.3,71.1878089 C200.7,74.1878089 200.8,74.3878089 200.3,73.6878089 L200.3,73.6878089 Z" id="Path" fill="#F4A269"></path>
            <path d="M198,74.5878089 C196.2,73.1878089 198.4,70.5878089 199.9,68.5878089 C206.7,58.7878089 203.9,59.2878089 200.3,71.0878089 C199.7,73.2878089 199.8,74.0878089 203,75.0878089 C222.2,79.8878089 199.9,76.0878089 198,74.5878089 Z" id="Path" fill="#CE6D42"></path>
            <path d="M204,61.6878089 L204.4,60.5878089 C204.349271,60.9661666 204.248384,61.3360844 204.1,61.6878089 L204,61.6878089 Z M204,77.9878089 C202.957402,77.9285294 201.911884,78.0297086 200.9,78.2878089 C192.2,76.0878089 191,74.5878089 192.2,72.2878089 C193.450264,69.4623168 194.886757,66.7229581 196.5,64.0878089 C199.5,72.6878089 185.4,74.8878089 204.1,77.9878089 L204,77.9878089 Z M218.3,78.3878089 C203.6,73.9878089 202.8,73.1878089 204.9,69.6878089 C206.1,67.6878089 210.9,61.4878089 210.9,58.7878089 C213.9,60.7878089 205.9,72.1878089 206.3,72.8878089 C219.3,78.6878089 219.5,78.6878089 218.3,78.3878089 Z" id="Shape" fill="#CE6D42"></path>
            <polygon id="Path" fill="#A52A6A" points="61 159.587809 58.2 160.887809 61.1 159.587809"></polygon>
            <path d="M51.7,252.087809 C50.2276183,250.475571 48.8582409,248.772199 47.6,246.987809 C77.5,229.987809 74.4,229.087809 57.1,249.587809 C79.7,252.787809 81.8,253.287809 51.7,252.087809 L51.7,252.087809 Z" id="Path" fill="#7C2050"></path>
            <path d="M48.1,164.187809 C51.3,162.787809 65.9,157.987809 50.8,163.587809 C86.5,175.787809 92,191.687809 103.1,207.587809 C113.8,207.587809 155.6,198.287809 155.6,196.487809 C155.6,191.187809 150.1,169.187809 129.9,156.787809 C163.4,166.487809 150.9,177.787809 183.5,212.887809 C205.2,234.687809 201.2,244.887809 190.2,261.287809 C192.7,283.187809 188.2,295.787809 185.7,305.087809 C153.681165,320.013712 116.969212,321.277152 84,308.587809 C87.7,288.587809 66.3,269.687809 50.3,250.387809 C52.1,251.687809 55.8,251.287809 73.8,251.987809 L57.1,249.587809 C79.3,223.287809 76.1,232.787809 23,261.187809 C13.5647982,247.724271 6.77743884,232.58846 3,216.587809 C16.5,195.087809 26,173.587809 48.1,164.187809 L48.1,164.187809 Z" id="Path" fill="#A52A6A"></path>
            <path d="M50.8,163.587809 C61.3,159.387809 69.8,158.187809 69.8,140.787809 C69.8,131.387809 65.6,104.387809 66,105.087809 C66.5021673,106.123009 67.0699916,107.125052 67.7,108.087809 C79.4,127.587809 97.9,165.287809 114.2,147.087809 C116,154.787809 125.3,148.787809 142.7,167.587809 C149.875813,175.767737 154.560306,185.830722 156.2,196.587809 C156.2,198.587809 114.9,207.587809 103.1,207.587809 C92,191.687809 86.5,175.787809 50.8,163.587809 L50.8,163.587809 Z" id="Path" fill="#F4A269"></path>
            <path d="M66,105.287809 C65.9,103.287809 79.4,124.887809 112.8,134.687809 C113.3,137.887809 113.1,142.487809 114.2,147.187809 C97.4,165.587809 78.4,128.187809 66.1,105.187809 L66,105.287809 Z" id="Path" fill="#CE6D42"></path>
            <path d="M63.1,100.287809 C78,127.987809 130.4,148.587809 134,123.887809 C136.6,105.587809 154.2,96.6878089 152,77.7878089 C151.1,70.1878089 148.1,63.5878089 145.2,61.7878089 C145.741104,58.2455372 146.041792,54.670698 146.1,51.0878089 C146.1,16.1878089 84.8,31.3878089 62.1,51.9878089 C62.9,59.1878089 65.7,68.0878089 59.9,76.6878089 C52.9,71.6878089 49.2,67.4878089 42.1,70.1878089 C29.1,75.1878089 56.5,109.387809 63.1,100.187809 L63.1,100.287809 Z" id="Path" fill="#F4A269"></path>
            <path d="M126.1,106.787809 C125.1,107.487809 124.1,119.287809 111.6,112.087809 C106.564312,108.852091 102.04662,104.873825 98.2,100.287809 C106.725164,104.9793 116.379179,107.228443 126.1,106.787809 L126.1,106.787809 Z" id="Path" fill="#D17154"></path>
            <path d="M96,99.0878089 C108.2,101.787809 111.3,99.9878089 114.6,99.9878089 C116.9,99.9878089 117.2,102.387809 118.9,102.487809 C120.6,102.587809 121.8,101.487809 123.4,101.987809 C124.7,102.187809 125.4,104.787809 130.6,105.487809 C121.1,109.787809 105.3,104.187809 96,99.0878089 Z" id="Path" fill="#B24736"></path>
            <path d="M86.7,65.9878089 C90.9,71.9878089 104.1,71.4878089 108.5,68.9878089 C106.828274,63.7928303 101.956649,60.3014988 96.5,60.3878089 C89.2,60.1878089 89,64.7878089 86.7,65.9878089 Z M96.8,60.7878089 C103.3,61.0878089 102.8,70.7878089 96.4,70.4878089 C90,70.1878089 90.4,60.4878089 96.8,60.6878089 L96.8,60.7878089 Z" id="Shape" fill="#FFFFFF"></path>
            <path d="M96.5,60.2878089 C86.4,60.0878089 89.8,68.9878089 82.7,65.2878089 C83.2,64.3878089 85.3,66.2878089 86.2,63.2878089 C88.3,56.6878089 95.2,55.8878089 101.2,58.0878089 C108.2,60.5878089 109.4,68.7878089 108.7,69.0878089 C106.994806,63.8025419 102.053312,60.2381855 96.5,60.2878089 L96.5,60.2878089 Z" id="Path" fill="#000000"></path>
            <path d="M128,65.7878089 L129.4,67.9878089 C136.7,69.3878089 143.4,68.6878089 144.2,61.1878089 C143.4,60.6878089 142.8,59.7878089 141.9,59.1878089 C138.3,56.3878089 130.9,58.2878089 127.9,65.7878089 L128,65.7878089 Z M134.7,59.3878089 C140.5,59.3878089 140.5,68.1878089 134.7,68.1878089 C128.9,68.1878089 128.8,59.3878089 134.7,59.3878089 L134.7,59.3878089 Z" id="Shape" fill="#FFFFFF"></path>
            <path d="M142,59.0878089 C138.3,56.3878089 130.8,58.2878089 128,65.7878089 L127,64.4878089 C128.6,53.7878089 143.6,51.1878089 145.2,59.3878089 C145.6,61.3878089 147.2,60.3878089 147.6,60.8878089 C144.3,62.8878089 143.8,60.3878089 141.9,59.0878089 L142,59.0878089 Z" id="Path" fill="#000000"></path>
            <path d="M44.5,61.3878089 C34,35.3878089 46.6,-3.0121911 96.2,0.187808901 C108.3,0.987808901 126.8,6.1878089 134.6,16.6878089 C112.1,2.5878089 56,19.6878089 44.6,61.3878089 L44.5,61.3878089 Z" id="Path" fill="#42210B"></path>
            <path d="M52,70.9878089 C52,64.2878089 55.9,57.7878089 62.2,51.9878089 C62.9,59.1878089 65.7,68.0878089 59.9,76.6878089 L52,70.9878089 Z" id="Path" fill="#42210B"></path>
            <path d="M128,65.7878089 C131,70.2878089 141.5,87.5878089 138.3,91.8878089 C136.5,94.3878089 125,92.3878089 118.3,89.8878089 C123.5,88.8878089 132.4,90.8878089 134.1,89.2878089 C137.1,83.5878089 125.8,68.4878089 123.7,63.0878089 C121.9,58.6878089 121,55.2878089 129.6,51.8878089 C120.8,56.9878089 123.5,59.3878089 127.9,65.7878089 L128,65.7878089 Z" id="Path" fill="#CE6D42"></path>
            <path d="M52,70.9878089 C45.6,67.1878089 41.4,72.9878089 44.6,61.3878089 C57.9,12.8878089 131.6,-2.2121911 142.6,26.0878089 C145,32.0878089 146.9,39.1878089 145.3,45.4878089 C139.5,13.4878089 51.6,39.3878089 52,70.9878089 Z" id="Path" fill="#80C416"></path>
            <path d="M106.3,46.7878089 C98.9,46.7878089 93.8,42.2878089 81.4,50.0878089 C87,38.7878089 115.4,45.3878089 106.3,46.7878089 L106.3,46.7878089 Z M131.4,51.4878089 C133.828387,48.9197287 137.272677,47.5639973 140.8,47.7878089 C145.5,48.4878089 147.2,52.1878089 146.1,53.1878089 C142.5,48.0878089 137.5,49.7878089 131.4,51.4878089 L131.4,51.4878089 Z M96.8,60.6878089 C103.3,60.9878089 102.8,70.6878089 96.4,70.4878089 C90,70.2878089 90.4,60.4878089 96.8,60.6878089 Z M134.7,59.3878089 C140.5,59.3878089 140.5,68.1878089 134.7,68.1878089 C128.9,68.1878089 128.8,59.3878089 134.7,59.3878089 Z" id="Shape" fill="#000000"></path>
            <path d="M103.6,96.4878089 C92.6,97.3878089 94.8,89.4878089 91.4,104.787809 C90.4,101.287809 89.6,98.6878089 91.4,93.9878089 C94.6,94.3878089 96.7,93.6878089 102.5,91.7878089 C111.5,88.7878089 109.1,84.0878089 115.2,83.7878089 C110,84.9878089 112,95.9878089 103.6,96.6878089 L103.6,96.4878089 Z" id="Path" fill="#CE6D42"></path>
            <path d="M99.5,275.787809 C93.8,272.787809 83.1,258.787809 84.9,250.387809 C97.9,268.987809 118.2,273.387809 137,270.887809 C127.2,275.787809 108.7,280.587809 99.5,275.787809 L99.5,275.787809 Z" id="Path" fill="#7C2050"></path>
            <path d="M56.4,81.7878089 C56.1,82.2878089 52.9,85.1878089 56.4,86.1878089 C58.7,86.9878089 60.4,85.8878089 60.4,87.6878089 C60.4,88.8878089 60.9,90.3878089 59.1,90.4878089 C60.4,87.6878089 57.1,87.4878089 55.7,88.5878089 C54.3,89.6878089 49.1,85.2878089 54.7,81.6878089 C49.8,78.4878089 44.9,72.6878089 45,83.0878089 C40.1,75.7878089 44.8,68.2878089 56.4,81.7878089 Z M220.7,70.2878089 C220.2,71.6878089 221.5,72.0878089 220,73.5878089 C222.3,72.5878089 223.8,70.8878089 221.5,69.8878089 C222.5,70.2878089 223.5,68.2878089 223.7,67.2878089 C223.1,67.4878089 223.4,67.2878089 223.7,67.2878089 C229.5,65.0878089 230.1,70.2878089 230.4,70.6878089 C232.2,68.4878089 230.4,64.6878089 225.7,64.3878089 C223.6,64.1878089 225.9,62.3878089 217.8,60.2878089 C221.4,61.2878089 222.5,63.1878089 223,64.6878089 C221.6,61.0878089 224,71.7878089 215.4,71.8878089 C219.6,72.1878089 220.3,70.9878089 220.7,70.2878089 L220.7,70.2878089 Z M221.4,69.8878089 C221.366699,69.8857235 221.333301,69.8857235 221.3,69.8878089 C221.333301,69.8857235 221.366699,69.8857235 221.4,69.8878089 Z" id="Shape" fill="#CE6D42"></path>
        </g>
    </g>
</svg>

<svg viewBox="0 0 299 318" xmlns="http://www.w3.org/2000/svg" role="img" aria-hidden="true" focusable="false"><g transform="matrix(-1 0 0 1 298.366 0)" fill="none"><circle fill="#F0ECF0" cx="131.2" cy="186.088" r="131.2"/><path d="M144.8 100.788c10.5 9 34.6 4.3 35.4 40.7-1.8-14.3-16.6-16-35.9-39.6l.5-1v-.1zm-83.8.8c3.6-1.2.5-3.3 5 3.5 4 37.1 8.6 47.9-7.8 55.8-1.6.6-4.6 1-10.1 3.3-18-25.7 1-45.6 3-67.1 4.1 3.4 8.2 5 10 4.5H61z" fill="#42210B"/><path d="M166.5 157.588c-54.6-16-50.2 7.4-54.3-23.3 7.1 1.3 20 1.8 21.8-10.4 1.8-12.2 7.2-16 10.3-22 12.4 15 27.3 21.2 30.7 56-4.2.1-7.3 0-8.5-.3zm-122-96.2a68.021 68.021 0 0 0-1.2 5.3c-18.1-24 5.7-52.2 10-54 2.6-1.1-10.4 7.2-11.8 27a47 47 0 0 0 3 21.7z" fill="#42210B"/><path d="M254.9 135.888l.2 3.5-.2-3.5zm-.8-8.9l.8 8.9-.8-8.9zm-11.1-38.4l-3.4-5.8 3.3 5.8h.1zm.4.8l.5.8-.5-.8zm2.4 4.5l.3.5-.3-.5zm-1-1.9l.3.5-.3-.5z" fill="#F4A269"/><path d="M243.7 83.188c35 57.8 6.6 68.9 23.2 85.9-4.2-4.3-7.4-5.2-10-13.5-2.4 0 1.3-40.2-13.5-66.2-5.3-9.3-4.8-6 .3-6.2zm-11.6-9.4a37.9 37.9 0 0 0 4.8 5.4 24.4 24.4 0 0 1-4.8-5.4z" fill="#CE6D42"/><path d="M220.3 61.988c1.9 1.3 2.9 1.5 2.1 3.6-2-1-3.1-2.2-2.3-4.3 2.2 1.4.7.7.3.6l-.1.1zm-2 16.4l-.5-.2.5.2z" fill="#F4A269"/><path d="M220.3 61.988c.7 0 1.1.2 2 1.3l-2-1.3zm-6.3 9.6a7.9 7.9 0 0 0 1.5.3 4 4 0 0 1-1.5-.3z" fill="#CE6D42"/><path d="M193.5 76.988c-.6-.1-2.8-.8-3-1.4a12.9 12.9 0 0 0 3 1.5v-.1zm22.8.4l-2.3-1 2.3 1z" fill="#D38053"/><path d="M217.8 78.188l.7.5c-3 2.2-1.3.2-13.5-.8 11.9.2 0-3.6 12.8.3z" fill="#F4A269"/><path d="M215.1 79.788c1.1-.2 2.6-1.5 3.4-2.1-.4-.4-.5-.2-.2-.3 2.4.7 11.2-5.8 11.5-8.2a23.2 23.2 0 0 0 .2 2.6c.2-5 6.2 14.7 21 9-7.2 5-15.1.5-14 1-10.3 5.3-12.2 8.5-22.4 3 4.6-1 4.3-3.1.5-5z" fill="#CE6D42"/><path d="M193 210.788l1.6-.4-1.6.4zm-6.8 1.5l1.5-.3-1.5.3zm27.4-14.8c-3 .4-27.4 3.3-29 1.7-.5-.4 10.2-18 10-24.1-1.6 6-12.6 18-14.9 23.8-6.5-4.1-18.7-11.2-22.7-27-2.6 6.7 2.5-6.6-27.1-15.1-5.5-3.4-9.8-4.5-12.4-5.6a128.5 128.5 0 0 1 49 6.4c3.7 1.2 31-1.5 45.2.4-5.3 8.3-2 34.8 4.5 44.9 1.2 1.8 1.8 1.3-1.2 2 1.7-.3-.3.4-1.4-7.4z" fill="#A52A6A"/><path d="M157 174.988c-.8-1.4-1-.8 0-3.1 4 15.9 16.2 22.9 22.7 27 2.3-5.9 13.3-17.8 15-23.8 0 6-10.6 23.7-10.1 24.2 1.5 1.5 26-1.4 29-1.8 2.6 8.8 15.5 5.8-30.1 15.4a158 158 0 0 1-26.5-37.8v-.1z" fill="#7C2050"/><path d="M200.3 78.488c-3.7 2-1 8.9 2.7 8.4 6.9-1 22.6-2 12.6-7a3.2 3.2 0 0 0 2.9-1.6c1.5.2 11.6-4.1 10.9-8.1 3.4 4.1 5.6 7 8.4 9a14.3 14.3 0 0 0 11.9 2.3 22.5 22.5 0 0 1-6 1.7c35 57.8 6.7 68.9 23.2 85.9-4-4.2-7.4-5.2-10-13.5-33.6 2.7-56.2 1-45.1 2.5-5.3 8.3-2 34.7 4.5 44.8 33.6-4.2 67-19.4 78.5-28.9 3-2.6 4.7-8 2.7-10.7-1.1-1.6-3-7.2-3.5-8.3-9.4-19.2 6.3-3.6-36.2-78-9.7-16.9-1.8-11.9-29-20.4.3-.2-12.5-5.2-16.1-1.4h.1c-9.4-1.3-9.5.8-10.9 3.7-4.4-1.4-8.2 1-7 3.7.3-.4-2 2.3-5.2 11-1 2.8 7.6 5 10.6 5v-.1zm-2.7-18c-.8 0-1.7.8-2.6 2 1.2-1.6 2-2.2 2.6-2z" fill="#F4A269"/><path d="M200.3 73.688a2.7 2.7 0 0 1 0-2.5c.4 3 .5 3.2 0 2.5z" fill="#F4A269"/><path d="M198 74.588c-1.8-1.4.4-4 1.9-6 6.8-9.8 4-9.3.4 2.5-.6 2.2-.5 3 2.7 4 19.2 4.8-3.1 1-5-.5z" fill="#CE6D42"/><path d="M204 61.688l.4-1.1a4.3 4.3 0 0 1-.3 1.1h-.1zm0 16.3a10.2 10.2 0 0 0-3.1.3c-8.7-2.2-9.9-3.7-8.7-6a69.8 69.8 0 0 1 4.3-8.2c3 8.6-11.1 10.8 7.6 13.9h-.1zm14.3.4c-14.7-4.4-15.5-5.2-13.4-8.7 1.2-2 6-8.2 6-10.9 3 2-5 13.4-4.6 14.1 13 5.8 13.2 5.8 12 5.5z" fill="#CE6D42"/><path fill="#A52A6A" d="M61 159.588l-2.8 1.3 2.9-1.3z"/><path d="M51.7 252.088a52 52 0 0 1-4.1-5.1c29.9-17 26.8-17.9 9.5 2.6 22.6 3.2 24.7 3.7-5.4 2.5z" fill="#7C2050"/><path d="M48.1 164.188c3.2-1.4 17.8-6.2 2.7-.6 35.7 12.2 41.2 28.1 52.3 44 10.7 0 52.5-9.3 52.5-11.1 0-5.3-5.5-27.3-25.7-39.7 33.5 9.7 21 21 53.6 56.1 21.7 21.8 17.7 32 6.7 48.4 2.5 21.9-2 34.5-4.5 43.8a130.1 130.1 0 0 1-101.7 3.5c3.7-20-17.7-38.9-33.7-58.2 1.8 1.3 5.5.9 23.5 1.6l-16.7-2.4c22.2-26.3 19-16.8-34.1 11.6a129.6 129.6 0 0 1-20-44.6c13.5-21.5 23-43 45.1-52.4z" fill="#A52A6A"/><path d="M50.8 163.588c10.5-4.2 19-5.4 19-22.8 0-9.4-4.2-36.4-3.8-35.7a27 27 0 0 0 1.7 3c11.7 19.5 30.2 57.2 46.5 39 1.8 7.7 11.1 1.7 28.5 20.5a57 57 0 0 1 13.5 29c0 2-41.3 11-53.1 11-11.1-15.9-16.6-31.8-52.3-44z" fill="#F4A269"/><path d="M66 105.288c-.1-2 13.4 19.6 46.8 29.4.5 3.2.3 7.8 1.4 12.5-16.8 18.4-35.8-19-48.1-42l-.1.1z" fill="#CE6D42"/><path d="M63.1 100.288c14.9 27.7 67.3 48.3 70.9 23.6 2.6-18.3 20.2-27.2 18-46.1-.9-7.6-3.9-14.2-6.8-16a79.4 79.4 0 0 0 .9-10.7c0-34.9-61.3-19.7-84 .9.8 7.2 3.6 16.1-2.2 24.7-7-5-10.7-9.2-17.8-6.5-13 5 14.4 39.2 21 30v.1z" fill="#F4A269"/><path d="M126.1 106.788c-1 .7-2 12.5-14.5 5.3a59.4 59.4 0 0 1-13.4-11.8 52.9 52.9 0 0 0 27.9 6.5z" fill="#D17154"/><path d="M96 99.088c12.2 2.7 15.3.9 18.6.9 2.3 0 2.6 2.4 4.3 2.5 1.7.1 2.9-1 4.5-.5 1.3.2 2 2.8 7.2 3.5-9.5 4.3-25.3-1.3-34.6-6.4z" fill="#B24736"/><path d="M86.7 65.988c4.2 6 17.4 5.5 21.8 3a12.4 12.4 0 0 0-12-8.6c-7.3-.2-7.5 4.4-9.8 5.6zm10.1-5.2c6.5.3 6 10-.4 9.7-6.4-.3-6-10 .4-9.8v.1z" fill="#FFF"/><path d="M96.5 60.288c-10.1-.2-6.7 8.7-13.8 5 .5-.9 2.6 1 3.5-2 2.1-6.6 9-7.4 15-5.2 7 2.5 8.2 10.7 7.5 11a12.7 12.7 0 0 0-12.2-8.8z" fill="#000"/><path d="M128 65.788l1.4 2.2c7.3 1.4 14 .7 14.8-6.8-.8-.5-1.4-1.4-2.3-2-3.6-2.8-11-.9-14 6.6h.1zm6.7-6.4c5.8 0 5.8 8.8 0 8.8s-5.9-8.8 0-8.8z" fill="#FFF"/><path d="M142 59.088c-3.7-2.7-11.2-.8-14 6.7l-1-1.3c1.6-10.7 16.6-13.3 18.2-5.1.4 2 2 1 2.4 1.5-3.3 2-3.8-.5-5.7-1.8h.1z" fill="#000"/><path d="M44.5 61.388c-10.5-26 2.1-64.4 51.7-61.2 12.1.8 30.6 6 38.4 16.5-22.5-14.1-78.6 3-90 44.7h-.1z" fill="#42210B"/><path d="M52 70.988c0-6.7 3.9-13.2 10.2-19 .7 7.2 3.5 16.1-2.3 24.7l-7.9-5.7z" fill="#42210B"/><path d="M128 65.788c3 4.5 13.5 21.8 10.3 26.1-1.8 2.5-13.3.5-20-2 5.2-1 14.1 1 15.8-.6 3-5.7-8.3-20.8-10.4-26.2-1.8-4.4-2.7-7.8 5.9-11.2-8.8 5.1-6.1 7.5-1.7 13.9h.1z" fill="#CE6D42"/><path d="M52 70.988c-6.4-3.8-10.6 2-7.4-9.6 13.3-48.5 87-63.6 98-35.3 2.4 6 4.3 13.1 2.7 19.4-5.8-32-93.7-6.1-93.3 25.5z" fill="#80C416"/><path d="M106.3 46.788c-7.4 0-12.5-4.5-24.9 3.3 5.6-11.3 34-4.7 24.9-3.3zm25.1 4.7a11.9 11.9 0 0 1 9.4-3.7c4.7.7 6.4 4.4 5.3 5.4-3.6-5.1-8.6-3.4-14.7-1.7zm-34.6 9.2c6.5.3 6 10-.4 9.8-6.4-.2-6-10 .4-9.8zm37.9-1.3c5.8 0 5.8 8.8 0 8.8s-5.9-8.8 0-8.8z" fill="#000"/><path d="M103.6 96.488c-11 .9-8.8-7-12.2 8.3-1-3.5-1.8-6.1 0-10.8 3.2.4 5.3-.3 11.1-2.2 9-3 6.6-7.7 12.7-8-5.2 1.2-3.2 12.2-11.6 12.9v-.2z" fill="#CE6D42"/><path d="M99.5 275.788c-5.7-3-16.4-17-14.6-25.4 13 18.6 33.3 23 52.1 20.5-9.8 4.9-28.3 9.7-37.5 4.9z" fill="#7C2050"/><path d="M56.4 81.788c-.3.5-3.5 3.4 0 4.4 2.3.8 4-.3 4 1.5 0 1.2.5 2.7-1.3 2.8 1.3-2.8-2-3-3.4-1.9s-6.6-3.3-1-6.9c-4.9-3.2-9.8-9-9.7 1.4-4.9-7.3-.2-14.8 11.4-1.3zm164.3-11.5c-.5 1.4.8 1.8-.7 3.3 2.3-1 3.8-2.7 1.5-3.7 1 .4 2-1.6 2.2-2.6-.6.2-.3 0 0 0 5.8-2.2 6.4 3 6.7 3.4 1.8-2.2 0-6-4.7-6.3-2.1-.2.2-2-7.9-4.1 3.6 1 4.7 2.9 5.2 4.4-1.4-3.6 1 7.1-7.6 7.2 4.2.3 4.9-.9 5.3-1.6zm.7-.4z" fill="#CE6D42"/></g></svg>
